X:1
T:Female Convict to Her Infant
T:Thomas Dale, 1819         12 11.12 11. or 12.12.12.12. 
T:Transcribed from Supplement to the Kentucky Harmony, 1825.
T:E minor                       Robert Boyd, 1822 
%%score [ 1 2 3 4 ]
L:1/8
Q:1/4=100
M:3/4
K:C
V:1 treble nm="Tr." snm="Tr."
V:2 treble nm="C." snm="C."
V:3 treble-8 nm="T." snm="T."
V:4 bass nm="B." snm="B."
V:1
"^O      sleep   not  my  babe, for  the morn of   to –mor –row    Shall    soothe  me  to slumber more  tranquil  than thine;  The\n        dark grave shall shield me from shame and from sorrow.  Though  the  deed  and  the doom  of  the guilty are                       mine.\n""^1.{" A2 |: %1
 G2 G2 GA | E4 E G | A2 A2 Bc | d2 e2 cB | A4 B c | d2 e2 Bd | ed B2 G2 |1 A4 A2 :|2"^}" A6 || %10
 z4"^Not   long  shall  the  arm  of     af – fec – tion  en –\n" ed | c2 c2 Bc | d4 c d | %13
 e2 e2 cA | %14
"^–fold thee;  Not long shalt thou hang on thy mother's fond breast;  And who  with  the     eye   of     de  –  light  shall  be–hold  thee,  And watch thee and guard thee when   I      am     at    rest?\n" B2 B2 ed | %15
 c2 c2 Bc | d4 c d | e2 d2 c2 | B4 AG | E4 A B | A4 c B | A2 G2 (G A) | B2 B2 AB | c2 d2 ec | %24
 d2 e2 cd | ed B2 G2 | A6 |] %27
V:2
"^And        yet  it  doth  grieve  me to wake  thee,  my   dearest.  The       pangs  of  thy  de – so – late   mother     to    see;  Thou\n      wilt weep when the clank of my cold chains thou hearest;   And      none  but  the  guilty   should  weep  o – ver                         me.\n\n""^2.{" E2 |: %1
 G2 G2 GA | B4 A G | A2 E2 EF | G2 G2 cB | A4 G A | B2 E2 EF | G2 E2 E2 |1 E4 E2 :|2"^}" E6 || %10
 z4"^And      yet  I  must  wake thee, and while thou art\n\n" AB | A2 G2 E2 | G4 G A | E2 E2 G2 | %14
"^weeping,    To    calm  thee   I'll    sti  – fle  my  tears  for  a  while. Thou   smil'st  in  thy dreams while thus  pla – cid – ly      sleeping.  And     O   how   it    wounds  me  to   gaze    on   thy   smile\n\n" B2 B2 AB | %15
 A2 G2 E2 | G4 A B | c2 B2 A2 | E4 EF | G4 A G | E4 A B | c2 G2 A2 | E2 E2 EF | G2 G2 A2 | %24
 B2 E2 EF | G2 E2 E2 | E6 |] %27
V:3
"^A    –   las,  my sweet babe, with what pride I had pressed thee   To      the  bosom  that now throbs with terror and shame.  If\n            the  pure  tie    of  virtue's  affection  had  blessed thee,  And hailed  thee  the  heir  of  thy   fa – ther's  high                    name.\n\n""^3.{" AB |: %1
 c2 c2 BA | B4 A G | A2 A2 EF | G2 G2 EG | A4 B A | G2 E2 ED | E2 G2 B2 |1 A4 AB :|2"^}" A6 || %10
 z4"^But      now  with  remorse  that  a  –  vails  not  I\n\n" cd | e2 e2 dc | d4 c B | %13
 A2 A2 cd | %14
"^mourn thee.  For–sa–ken  and    friendless   as  soon thou wilt be.   In         a     world,  if     they   cannot    betray,  that will scorn thee.  A – ven – ging  the     guilt  of  thy       mo – ther  on   thee.\n\n" e2 e2 cd | %15
 e2 e2 dc | d4 c B | A2 G2 A2 | E4 EF | G4 F E | A4 A G | A2 c2 (B A) | B2 B2 ed | c2 B2 A2 | %24
 G2 E2 ED | E2 G2 B2 | A6 |] %27
V:4
"^And  when  the  dark  thought  of  my  fate  shall a – wa – ken  The   deep  blush  of  shame  on  thy  in–no–cent  cheek.  Then\n            by    all    but   God      of    the   orphan   for – sa – ken,  A    home  and    a    father   in        vain  thou  wilt                       seek.\n\n""^4.{" A,2 |: %1
 C,2 C,2 D,2 | E,4 A, B, | A,2 C2 B,A, | G,2 E,2 E,2 | D,4 E, F, | G,2 E,2 C,D, | E,2 D,2 E,2 |1 %8
 A,,4 A,2 :|2"^}" A,,6 || z4"^I        know  that  the base world will  seek  to  de –\n\n" CB, | %11
 A,2 E,2 C,2 | G,4 A, B, | A,2 A,2 F,E, | %14
"^–ceive thee  With falsehood like that which thy mother beguiled;   De  –  ser – ted   and    helpless,   with  whom   can    I     leave  thee?   O      God  of   the    fa – the – rless,  pi  –  ty   my     child!\n\n""^_________________________________________________________________________________________________\nA folk hymn (Jackson 1953b, no. 42); similar to English folk songs of the sixteenth and seventeenth centuries.\nAlso in \nSouthern Harmony\n, 1835,\n" E,2 E,2 CB, | %15
 A,2 E,2 C,2 | G,4 E, G, | A,2 B,2 A,2 | E,4 E,D, | C,4 D, E, | A,4 E, C, | D,2 C,2 D,2 | %22
 E,2 E,2 A,,B,, | C,2 D,2 E,F, | G,2 E,2 C,D, | E,2 D,2 E,2 | A,,6 |] %27

